src/assets/filled/Edit2.svg

<svg width="24" height="24" viewBox="0 0 24 24"  xmlns="http://www.w3.org/2000/svg">
<path d="M21 22H3C2.59 22 2.25 21.66 2.25 21.25C2.25 20.84 2.59 20.5 3 20.5H21C21.41 20.5 21.75 20.84 21.75 21.25C21.75 21.66 21.41 22 21 22Z" />
<path d="M19.0201 3.47967C17.0801 1.53967 15.1801 1.48967 13.1901 3.47967L11.9801 4.68967C11.8801 4.78967 11.8401 4.94967 11.8801 5.08967C12.6401 7.73967 14.7601 9.85967 17.4101 10.6197C17.4501 10.6297 17.4901 10.6397 17.5301 10.6397C17.6401 10.6397 17.7401 10.5997 17.8201 10.5197L19.0201 9.30967C20.0101 8.32967 20.4901 7.37967 20.4901 6.41967C20.5001 5.42967 20.0201 4.46967 19.0201 3.47967Z" />
<path d="M15.6101 11.5298C15.3201 11.3898 15.0401 11.2498 14.7701 11.0898C14.5501 10.9598 14.3401 10.8198 14.1301 10.6698C13.9601 10.5598 13.7601 10.3998 13.5701 10.2398C13.5501 10.2298 13.4801 10.1698 13.4001 10.0898C13.0701 9.8098 12.7001 9.4498 12.3701 9.0498C12.3401 9.0298 12.2901 8.9598 12.2201 8.8698C12.1201 8.7498 11.9501 8.5498 11.8001 8.3198C11.6801 8.1698 11.5401 7.9498 11.4101 7.7298C11.2501 7.4598 11.1101 7.1898 10.9701 6.9098C10.9489 6.86441 10.9284 6.81924 10.9085 6.77434C10.7609 6.44102 10.3263 6.34358 10.0685 6.60133L4.34007 12.3298C4.21007 12.4598 4.09007 12.7098 4.06007 12.8798L3.52007 16.7098C3.42007 17.3898 3.61007 18.0298 4.03007 18.4598C4.39007 18.8098 4.89007 18.9998 5.43007 18.9998C5.55007 18.9998 5.67007 18.9898 5.79007 18.9698L9.63007 18.4298C9.81007 18.3998 10.0601 18.2798 10.1801 18.1498L15.9014 12.4285C16.1609 12.1689 16.063 11.7235 15.7254 11.5794C15.6874 11.5632 15.649 11.5467 15.6101 11.5298Z" />
</svg>

<?xml version="1.0" encoding="UTF-8"?>
<svg width="24" height="24" viewBox="0 0 24 24" xmlns="http://www.w3.org/2000/svg">
 <path d="m21 22h-18c-0.41 0-0.75-0.34-0.75-0.75s0.34-0.75 0.75-0.75h18c0.41 0 0.75 0.34 0.75 0.75s-0.34 0.75-0.75 0.75z"/>
 <path d="m19.02 3.4797c-1.94-1.94-3.84-1.99-5.83 0l-1.21 1.21c-0.1 0.1-0.14 0.26-0.1 0.4 0.76 2.65 2.88 4.77 5.53 5.53 0.04 0.01 0.08 0.02 0.12 0.02 0.11 0 0.21-0.04 0.29-0.12l1.2-1.21c0.99-0.98 1.47-1.93 1.47-2.89 0.01-0.99-0.47-1.95-1.47-2.94z"/>
 <path d="m15.61 11.53c-0.29-0.14-0.57-0.28-0.84-0.44-0.22-0.13-0.43-0.27-0.64-0.42-0.17-0.11-0.37-0.27-0.56-0.43-0.02-0.01-0.09-0.07-0.17-0.15-0.33-0.28-0.7-0.64-1.03-1.04-0.03-0.02-0.08-0.09-0.15-0.18-0.1-0.12-0.27-0.32-0.42-0.55-0.12-0.15-0.26-0.37-0.39-0.59-0.16-0.27-0.3-0.54-0.44-0.82-0.0212-0.04539-0.0417-0.09056-0.0616-0.13546-0.1476-0.33332-0.5822-0.43076-0.84-0.17301l-5.7284 5.7285c-0.13 0.13-0.25 0.38-0.28 0.55l-0.54 3.83c-0.1 0.68 0.09 1.32 0.51 1.75 0.36 0.35 0.86 0.54 1.4 0.54 0.12 0 0.24-0.01 0.36-0.03l3.84-0.54c0.18-0.03 0.43003-0.15 0.55003-0.28l5.7213-5.7213c0.2595-0.2596 0.1616-0.705-0.176-0.8491-0.038-0.0162-0.0764-0.0327-0.1153-0.0496z"/>
</svg>
